img/parceiros/lescone.svg

<svg width="208" height="41" viewBox="0 0 208 41" fill="none" xmlns="http://www.w3.org/2000/svg">
<g clip-path="url(#clip0_3_79)">
<mask id="mask0_3_79" style="mask-type:luminance" maskUnits="userSpaceOnUse" x="0" y="0" width="208" height="41">
<path d="M0 0H208V41H0V0Z" fill="white"/>
</mask>
<g mask="url(#mask0_3_79)">
<path fill-rule="evenodd" clip-rule="evenodd" d="M13.935 36.1229C13.8021 36.1217 13.6713 36.09 13.5526 36.0304C13.4338 35.9708 13.3303 35.8847 13.25 35.7789C13.0219 35.4756 12.8678 35.1233 12.8 34.7499C12.6916 34.2746 12.6081 33.7939 12.55 33.3099C12.4809 32.6866 12.4455 32.06 12.444 31.4329C12.4234 30.0549 12.4281 28.6767 12.458 27.2989C12.476 26.4529 12.484 25.7929 12.484 25.3169V9.56489C12.484 8.78889 12.489 8.19889 12.498 7.79389C12.507 7.38889 12.538 6.93089 12.589 6.41989C12.619 6.03989 12.685 5.66389 12.788 5.29689C12.888 5.01389 13.021 4.74389 13.183 4.49089C13.333 4.22589 13.551 4.00689 13.816 3.85689C14.124 3.70289 14.441 3.56689 14.765 3.44689C15.1825 3.29171 15.6152 3.18109 16.056 3.11689C16.6303 3.03305 17.2064 2.96237 17.784 2.90489V1.44989L17.334 0.999894H1.41199L0.98999 1.44989V2.69189C3.66199 2.85089 5.15599 3.60889 5.47199 4.96489C5.65599 6.10989 5.74399 7.26789 5.73599 8.42689V32.5539C5.7802 33.8071 5.72704 35.0619 5.57699 36.3069C5.50399 36.5009 5.39699 36.6789 5.26099 36.8349C5.05736 37.0784 4.84211 37.3121 4.61599 37.5349C4.43684 37.708 4.26534 37.8888 4.10199 38.0769V39.0019C17.689 39.0019 26.099 39.0899 29.332 39.2669L30.467 35.4349L29.755 34.9319C24.505 35.5929 19.225 35.9899 13.936 36.1219L13.935 36.1229ZM39.191 25.0769C39.1394 25.0913 39.0865 25.1001 39.033 25.1029C38.77 25.1029 38.638 25.0069 38.638 24.8129C38.639 23.9369 38.705 23.0619 38.836 22.1959C38.984 21.2519 39.231 20.3259 39.574 19.4349C39.9045 18.5315 40.3578 17.6778 40.921 16.8979C41.5179 16.1045 42.2931 15.4626 43.1839 15.0242C44.0747 14.5857 45.0562 14.363 46.049 14.3739C46.7654 14.3341 47.4799 14.4814 48.1223 14.8012C48.7647 15.121 49.3128 15.6023 49.713 16.1979C50.5441 17.4297 50.977 18.8871 50.953 20.3729C50.9495 20.6453 50.8629 20.9101 50.705 21.132C50.547 21.3539 50.3252 21.5224 50.069 21.6149C48.6253 22.1967 47.1511 22.6997 45.653 23.1219C43.5459 23.7419 41.4458 24.3853 39.353 25.0519C39.2982 25.0542 39.2439 25.0626 39.191 25.0769ZM54.851 33.3219C51.686 35.2419 48.953 36.2019 46.653 36.2019C45.0948 36.2357 43.5649 35.7831 42.276 34.9069C41.077 34.1023 40.1236 32.9821 39.521 31.6699C38.9277 30.354 38.6264 28.9253 38.638 27.4819C50.133 23.9059 55.933 22.1169 56.038 22.1169C56.4945 22.0235 56.9024 21.7696 57.1877 21.4011C57.473 21.0327 57.6168 20.5742 57.593 20.1089C57.6243 18.8116 57.3201 17.5282 56.71 16.3829C56.1528 15.3585 55.3282 14.5045 54.324 13.9119C53.3108 13.3172 52.2128 12.8805 51.068 12.6169C49.8262 12.3357 48.5562 12.1982 47.283 12.2069C44.999 12.1715 42.7339 12.6267 40.641 13.5419C38.7956 14.339 37.1651 15.5617 35.883 17.1099C34.6742 18.6069 33.7413 20.3071 33.128 22.1309C32.492 24.0075 32.171 25.9764 32.178 27.9579C32.178 32.0279 33.278 35.0759 35.474 37.1019C37.46 38.9519 40.264 39.8759 43.884 39.8759C45.9596 39.8546 48.0026 39.3575 49.856 38.4229C52.0879 37.3113 54.2259 36.0204 56.249 34.5629L55.672 33.5349L54.851 33.3219ZM90.36 5.45689C89.6536 3.61168 88.2663 2.10772 86.484 1.25489C84.2762 0.326042 81.8914 -0.106812 79.498 -0.0131064C77.7514 -0.0231252 76.0106 0.189931 74.318 0.620894C72.7435 1.0218 71.2404 1.66372 69.862 2.52389C68.5118 3.37504 67.4077 4.56436 66.659 5.97389C65.8463 7.51566 65.4379 9.23837 65.472 10.9809C65.4711 12.2282 65.7742 13.457 66.355 14.5609C66.9098 15.6534 67.6606 16.6347 68.57 17.4559C69.548 18.3185 70.5874 19.1089 71.68 19.8209C72.7766 20.5516 73.9123 21.2219 75.082 21.8289C76.1816 22.3941 77.2631 22.9937 78.325 23.6269C79.205 24.1249 80.031 24.7139 80.79 25.3839C82.74 27.1989 83.716 28.9249 83.716 30.5639C83.7124 31.4345 83.5304 32.2951 83.1813 33.0927C82.8321 33.8902 82.3232 34.6077 81.686 35.2009C81.0534 35.852 80.2946 36.3672 79.456 36.7149C78.6174 37.0626 77.7167 37.2354 76.809 37.2229C75.7476 37.2534 74.6933 37.0406 73.7269 36.6009C72.7604 36.1611 71.9073 35.5061 71.233 34.6859C69.8337 33.0835 69.0696 31.0242 69.085 28.8969L68.058 28.5269L62.812 34.4199C64.0109 36.1551 65.6364 37.5522 67.532 38.4769C69.4594 39.4225 71.5802 39.9069 73.727 39.8919C75.6858 39.882 77.6321 39.5787 79.501 38.9919C81.3805 38.4261 83.1727 37.6033 84.827 36.5469C86.3996 35.5426 87.7351 34.2085 88.741 32.6369C89.7269 31.1425 90.2539 29.3922 90.257 27.6019C90.2649 26.6411 90.0954 25.6871 89.757 24.7879C89.4439 23.9528 89.0085 23.1689 88.465 22.4619C87.8251 21.677 87.0848 20.9796 86.263 20.3879C85.3651 19.7107 84.4274 19.088 83.455 18.5229C82.2911 17.8597 81.1135 17.2209 79.923 16.6069C79.0929 16.2045 78.2752 15.777 77.471 15.3249C76.7105 14.8804 75.9704 14.402 75.253 13.8909C74.5175 13.3867 73.8453 12.7958 73.251 12.1309C72.7287 11.5104 72.302 10.8154 71.985 10.0689C71.6331 9.26505 71.4536 8.39638 71.458 7.51889C71.4418 6.80124 71.5697 6.08763 71.8342 5.42031C72.0988 4.75299 72.4945 4.14553 72.998 3.63389C73.5301 3.10204 74.1669 2.68653 74.868 2.41369C75.5692 2.14085 76.3193 2.01662 77.071 2.04889C78.0021 2.00868 78.9305 2.17494 79.7897 2.53576C80.649 2.89657 81.4178 3.44301 82.041 4.13589C83.2897 5.5492 84.0762 7.31068 84.295 9.18389L85.218 9.47389L90.36 5.45689ZM115.998 15.5919C115.527 14.7671 114.845 14.0829 114.021 13.6099C113.206 13.1441 112.326 12.8014 111.411 12.5929C110.429 12.3751 109.425 12.2687 108.419 12.2759C106.5 12.2489 104.592 12.5759 102.79 13.2409C101.244 13.8022 99.8278 14.6695 98.625 15.7909C97.5072 16.8738 96.5802 18.1375 95.883 19.5289C95.1663 20.9286 94.6387 22.4173 94.314 23.9559C93.9937 25.5121 93.8348 27.0971 93.84 28.6859C93.834 30.0359 94.025 31.3799 94.406 32.6739C94.776 33.9269 95.351 35.1099 96.106 36.1759C96.9021 37.2754 97.9699 38.1496 99.205 38.7129C100.623 39.3609 102.168 39.6819 103.726 39.6509C108.665 39.6509 113.305 37.4749 117.646 33.1239L117.119 32.3569L116.46 32.1989C113.244 34.6829 110.273 35.9249 107.549 35.9249C106.529 35.9413 105.521 35.71 104.61 35.2509C103.784 34.841 103.066 34.2442 102.511 33.5079C101.96 32.751 101.512 31.9245 101.179 31.0499C100.833 30.1766 100.581 29.2687 100.428 28.3419C100.288 27.4679 100.218 26.5839 100.217 25.6989C100.223 24.5739 100.32 23.4519 100.507 22.3429C100.714 21.1079 101.023 19.8929 101.43 18.7089C101.8 17.5518 102.442 16.5003 103.302 15.6429C103.681 15.2592 104.132 14.9551 104.63 14.7487C105.129 14.5423 105.663 14.4376 106.202 14.4409C106.922 14.4012 107.64 14.5632 108.273 14.9088C108.906 15.2543 109.431 15.7697 109.787 16.3969C110.602 17.8656 111.003 19.5281 110.947 21.2069L111.87 21.5769L116.853 18.6179C116.812 17.5557 116.519 16.5185 115.998 15.5919ZM125.661 23.4539C125.795 22.4159 126.029 21.3939 126.36 20.4019C126.663 19.4369 127.093 18.5179 127.638 17.6669C128.162 16.8786 128.861 16.2227 129.682 15.7509C130.567 15.2401 131.574 14.9798 132.595 14.9979C133.703 14.9697 134.796 15.2583 135.745 15.8299C136.627 16.3792 137.336 17.1673 137.788 18.1029C138.265 19.0699 138.61 20.0959 138.815 21.1549C139.032 22.2949 139.139 23.4549 139.132 24.6169C139.132 25.6739 139.123 26.5549 139.105 27.2589C139.077 28.107 139.016 28.9536 138.921 29.7969C138.843 30.6269 138.698 31.4479 138.486 32.2539C138.279 32.9639 138.01 33.6539 137.682 34.3159C137.38 34.9712 136.944 35.5561 136.403 36.0329C135.844 36.4894 135.211 36.8469 134.531 37.0899C133.707 37.3848 132.836 37.5281 131.961 37.5129C130.997 37.5247 130.053 37.2383 129.258 36.6929C128.483 36.1734 127.838 35.4818 127.374 34.6719C126.887 33.8003 126.506 32.8733 126.24 31.9109C125.96 30.9638 125.757 29.9957 125.633 29.0159C125.531 28.1697 125.478 27.3182 125.475 26.4659C125.474 25.459 125.537 24.4531 125.661 23.4539ZM122.392 37.1169C124.307 38.8609 127.348 39.7329 131.514 39.7329C133.054 39.7429 134.59 39.5659 136.088 39.2039C137.497 38.8536 138.84 38.2782 140.066 37.4999C141.298 36.7226 142.375 35.7233 143.243 34.5529C144.192 33.2258 144.897 31.7402 145.326 30.1659C145.858 28.2567 146.115 26.2816 146.091 24.2999C146.142 22.7043 145.846 21.1167 145.222 19.6473C144.598 18.1778 143.662 16.8615 142.479 15.7899C140.281 13.8179 137.091 12.8309 132.909 12.8309C128.726 12.8309 125.281 14.1259 122.574 16.7159C121.245 17.972 120.196 19.4946 119.497 21.1842C118.797 22.8737 118.462 24.692 118.514 26.5199C118.514 31.2419 119.805 34.7739 122.389 37.1169H122.392ZM163.65 16.1869C165.056 16.1869 166.058 16.4689 166.656 17.0329C167.213 17.7129 167.565 18.5389 167.67 19.4129C167.891 20.4429 168.028 21.4909 168.079 22.5439C168.114 23.4689 168.132 24.6629 168.132 26.1249C168.131 28.0233 168.118 29.9217 168.093 31.8199C168.084 32.3919 168.088 33.0659 168.105 33.8419C168.11 34.4199 168.145 34.9979 168.211 35.5719C168.264 35.9519 168.334 36.3659 168.422 36.8139C168.483 37.1899 168.608 37.5509 168.791 37.8839C168.949 38.1489 169.143 38.3899 169.369 38.5989C170.16 39.3166 171.201 39.6957 172.268 39.6549C173.587 39.6549 175.098 38.9849 176.803 37.6469C178.226 36.4635 179.581 35.2015 180.863 33.8669L180.257 32.9669H179.624C178.593 33.7941 177.332 34.2833 176.013 34.3679C175.734 34.3839 175.454 34.343 175.191 34.2476C174.928 34.1522 174.687 34.0043 174.483 33.8129C174.301 33.669 174.145 33.4952 174.021 33.2989C173.876 32.9532 173.783 32.5879 173.745 32.2149C173.644 31.4573 173.6 30.6931 173.613 29.9289C173.613 29.3479 173.644 28.4089 173.705 27.1149C173.754 26.1949 173.785 25.2741 173.798 24.3529V22.7669C173.815 21.0579 173.811 19.8739 173.785 19.2119C173.732 18.3087 173.631 17.4091 173.481 16.5169C173.415 15.6757 173.134 14.8656 172.664 14.1649C172.2 13.6614 171.645 13.2494 171.029 12.9499C170.192 12.545 169.269 12.3497 168.34 12.3809C165.247 12.3809 161.661 13.6499 157.584 16.1869L156.951 15.9489C156.917 14.9772 156.601 14.0363 156.042 13.2409C155.523 12.5609 154.631 12.2229 153.366 12.2229C152.608 12.2324 151.856 12.3617 151.138 12.6059C150.303 12.8859 149.506 13.2679 148.764 13.7419C147.964 14.2449 147.27 14.7119 146.681 15.1429C146.092 15.5739 145.411 16.0979 144.638 16.7149L145.613 18.0099C145.792 17.8939 145.973 17.7796 146.154 17.6669C146.461 17.4729 146.729 17.3149 146.958 17.1909C147.186 17.0679 147.459 16.9229 147.775 16.7549C148.058 16.6009 148.354 16.4719 148.659 16.3689C148.892 16.2889 149.136 16.2439 149.383 16.2369C149.688 16.2299 149.989 16.3069 150.253 16.4619C150.521 16.6389 150.723 16.8989 150.831 17.2019C150.963 17.5219 151.077 17.8469 151.173 18.1789C151.281 18.6259 151.343 19.0819 151.358 19.5409C151.394 20.1409 151.415 20.6249 151.422 20.9939C151.43 21.3629 151.434 21.9179 151.435 22.6589V23.1089C151.435 24.8349 151.303 30.1199 151.04 38.9639L151.699 39.3339L157.631 37.6159C157.455 36.8589 157.323 34.4719 157.235 30.4559C157.148 26.5275 157.105 22.5983 157.107 18.6689C160.165 17.0129 162.344 16.1849 163.645 16.1849L163.65 16.1869ZM189.223 25.1969C189.172 25.2122 189.119 25.2216 189.065 25.2249C188.802 25.2249 188.67 25.1279 188.669 24.9349C188.67 24.0579 188.736 23.1839 188.868 22.3179C189.016 21.3739 189.263 20.4479 189.605 19.5559C189.936 18.6529 190.388 17.7989 190.95 17.0189C191.547 16.2253 192.322 15.5832 193.213 15.1447C194.104 14.7063 195.085 14.4836 196.078 14.4949C196.794 14.455 197.509 14.6022 198.151 14.922C198.794 15.2418 199.342 15.7232 199.742 16.3189C200.573 17.5506 201.006 19.0081 200.981 20.4939C200.977 20.766 200.891 21.0306 200.733 21.2524C200.575 21.4742 200.354 21.6428 200.098 21.7359C198.655 22.3174 197.181 22.8204 195.683 23.2429C193.576 23.8628 191.475 24.5062 189.382 25.1729C189.329 25.1758 189.276 25.1842 189.224 25.1979L189.223 25.1969ZM204.883 33.4429C201.718 35.3639 198.985 36.3239 196.684 36.3229C195.126 36.3565 193.596 35.9042 192.307 35.0289C191.108 34.224 190.155 33.1039 189.553 31.7919C188.959 30.4755 188.658 29.046 188.669 27.6019C200.164 24.0269 205.964 22.2389 206.07 22.2389C206.526 22.1451 206.934 21.8909 207.22 21.5224C207.505 21.1538 207.649 20.6953 207.625 20.2299C207.656 18.9326 207.352 17.6492 206.742 16.5039C206.185 15.4795 205.36 14.6256 204.356 14.0329C203.343 13.4384 202.245 13.0018 201.1 12.7379C199.858 12.4566 198.588 12.3191 197.314 12.3279C195.031 12.2927 192.766 12.7479 190.674 13.6629C188.829 14.4599 187.198 15.6826 185.916 17.2309C184.707 18.7277 183.774 20.4279 183.161 22.2519C182.525 24.1284 182.204 26.0975 182.212 28.0789C182.212 32.1489 183.31 35.1959 185.507 37.2229C187.493 39.0729 190.296 39.9969 193.917 39.9969C195.993 39.9755 198.036 39.4785 199.889 38.5439C202.121 37.4321 204.259 36.1415 206.282 34.6849L205.705 33.6559L204.883 33.4429Z" fill="#9C9C9C"/>
</g>
</g>
<defs>
<clipPath id="clip0_3_79">
<rect width="208" height="41" fill="white"/>
</clipPath>
</defs>
</svg>

<svg width="208" height="41" fill="none" xmlns="http://www.w3.org/2000/svg">
  <g clip-path="url(#a)">
    <path fill-rule="evenodd" clip-rule="evenodd" d="M13.935 36.123a.87.87 0 0 1-.685-.344 2.436 2.436 0 0 1-.45-1.03 13.958 13.958 0 0 1-.25-1.44c-.07-.622-.105-1.249-.106-1.876-.02-1.378-.016-2.756.014-4.134.018-.846.026-1.506.026-1.982V9.565c0-.776.005-1.366.014-1.771.009-.405.04-.863.091-1.374.03-.38.096-.756.199-1.123.1-.283.233-.553.395-.806.15-.265.368-.484.633-.634.308-.154.625-.29.949-.41a6.32 6.32 0 0 1 1.291-.33c.574-.084 1.15-.155 1.728-.212V1.45l-.45-.45H1.412l-.422.45v1.242c2.672.159 4.166.917 4.482 2.273a20.91 20.91 0 0 1 .264 3.462v24.127a24.227 24.227 0 0 1-.159 3.753 1.73 1.73 0 0 1-.316.528 9.886 9.886 0 0 1-.645.7c-.18.173-.35.354-.514.542v.925c13.587 0 21.997.088 25.23.265l1.135-3.832-.712-.503c-5.25.66-10.53 1.058-15.819 1.19h-.001Zm25.256-11.046a.73.73 0 0 1-.158.026c-.263 0-.395-.096-.395-.29.001-.876.067-1.751.198-2.617.148-.944.395-1.87.738-2.761a10.49 10.49 0 0 1 1.347-2.537 6.33 6.33 0 0 1 5.128-2.524 4.137 4.137 0 0 1 3.664 1.824 7.255 7.255 0 0 1 1.24 4.175 1.339 1.339 0 0 1-.884 1.242 43.072 43.072 0 0 1-4.416 1.507c-2.107.62-4.207 1.263-6.3 1.93a.74.74 0 0 0-.162.025Zm15.66 8.245c-3.165 1.92-5.898 2.88-8.198 2.88a7.496 7.496 0 0 1-4.377-1.295 7.837 7.837 0 0 1-2.755-3.237 9.994 9.994 0 0 1-.883-4.188c11.495-3.576 17.295-5.365 17.4-5.365a1.948 1.948 0 0 0 1.555-2.008 7.538 7.538 0 0 0-.883-3.726 6.445 6.445 0 0 0-2.386-2.471 11.554 11.554 0 0 0-3.256-1.295 16.624 16.624 0 0 0-3.785-.41 15.96 15.96 0 0 0-6.642 1.335 12.734 12.734 0 0 0-4.758 3.568 16.223 16.223 0 0 0-2.755 5.02 17.956 17.956 0 0 0-.95 5.828c0 4.07 1.1 7.118 3.296 9.144 1.986 1.85 4.79 2.774 8.41 2.774a13.573 13.573 0 0 0 5.972-1.453 46.087 46.087 0 0 0 6.393-3.86l-.577-1.028-.82-.213h-.001ZM90.36 5.457a7.717 7.717 0 0 0-3.876-4.202 16.364 16.364 0 0 0-6.986-1.268 20.517 20.517 0 0 0-5.18.634 15.765 15.765 0 0 0-4.456 1.903 9.155 9.155 0 0 0-3.203 3.45 10.305 10.305 0 0 0-1.187 5.007c0 1.247.302 2.476.883 3.58a10.004 10.004 0 0 0 2.215 2.895 26.924 26.924 0 0 0 3.11 2.365 36.23 36.23 0 0 0 3.402 2.008c1.1.565 2.181 1.165 3.243 1.798.88.498 1.706 1.087 2.465 1.757 1.95 1.815 2.926 3.54 2.926 5.18a6.372 6.372 0 0 1-2.03 4.637 6.672 6.672 0 0 1-4.877 2.022 6.96 6.96 0 0 1-5.576-2.537 8.705 8.705 0 0 1-2.148-5.79l-1.027-.37-5.246 5.894a12.282 12.282 0 0 0 4.72 4.057 13.845 13.845 0 0 0 6.195 1.415 19.606 19.606 0 0 0 5.774-.9 21.309 21.309 0 0 0 5.326-2.445 12.874 12.874 0 0 0 3.914-3.91 9.172 9.172 0 0 0 1.516-5.035 7.807 7.807 0 0 0-.5-2.814 9.001 9.001 0 0 0-1.292-2.326 11.544 11.544 0 0 0-2.202-2.074 28.166 28.166 0 0 0-2.808-1.865 96.238 96.238 0 0 0-3.532-1.916c-.83-.402-1.648-.83-2.452-1.282-.76-.445-1.5-.923-2.218-1.434a11.112 11.112 0 0 1-2.002-1.76 8.147 8.147 0 0 1-1.266-2.062 6.28 6.28 0 0 1-.527-2.55 5.367 5.367 0 0 1 1.54-3.885 5.432 5.432 0 0 1 4.073-1.585 6.318 6.318 0 0 1 4.97 2.087 9.244 9.244 0 0 1 2.254 5.048l.923.29 5.142-4.017Zm25.638 10.135a5.335 5.335 0 0 0-1.977-1.982 9.526 9.526 0 0 0-2.61-1.017 13.378 13.378 0 0 0-2.992-.317c-1.919-.027-3.827.3-5.629.965a12.226 12.226 0 0 0-4.165 2.55 13.832 13.832 0 0 0-2.742 3.738 17.76 17.76 0 0 0-1.569 4.427 23.088 23.088 0 0 0-.474 4.73c-.006 1.35.185 2.694.566 3.988.37 1.253.945 2.436 1.7 3.502a7.845 7.845 0 0 0 3.099 2.537 10.38 10.38 0 0 0 4.521.938c4.939 0 9.579-2.176 13.92-6.527l-.527-.767-.659-.158c-3.216 2.484-6.187 3.726-8.911 3.726a6.304 6.304 0 0 1-2.939-.674 5.928 5.928 0 0 1-2.099-1.743 10.563 10.563 0 0 1-1.332-2.458 13.181 13.181 0 0 1-.751-2.708c-.14-.874-.21-1.758-.211-2.643a20.85 20.85 0 0 1 .29-3.356c.207-1.235.516-2.45.923-3.634a7.597 7.597 0 0 1 1.872-3.066 4.041 4.041 0 0 1 2.9-1.202 3.878 3.878 0 0 1 3.585 1.956 9.276 9.276 0 0 1 1.16 4.81l.923.37 4.983-2.96a6.701 6.701 0 0 0-.855-3.025Zm9.663 7.862c.134-1.038.368-2.06.699-3.052.303-.965.733-1.884 1.278-2.735a6.11 6.11 0 0 1 2.044-1.916 5.628 5.628 0 0 1 2.913-.753 5.818 5.818 0 0 1 3.15.832 5.495 5.495 0 0 1 2.043 2.273c.477.967.822 1.993 1.027 3.052.217 1.14.324 2.3.317 3.462 0 1.057-.009 1.938-.027 2.642a32.146 32.146 0 0 1-.184 2.538 15.27 15.27 0 0 1-.435 2.457c-.207.71-.476 1.4-.804 2.062a5.178 5.178 0 0 1-1.279 1.717 6.324 6.324 0 0 1-1.872 1.057 7.254 7.254 0 0 1-2.57.423 4.677 4.677 0 0 1-2.703-.82 6.06 6.06 0 0 1-1.884-2.021 12.474 12.474 0 0 1-1.134-2.761 18.328 18.328 0 0 1-.607-2.895 21.955 21.955 0 0 1-.158-2.55 24.262 24.262 0 0 1 .186-3.012Zm-3.269 13.663c1.915 1.744 4.956 2.616 9.122 2.616 1.54.01 3.076-.167 4.574-.53a13.499 13.499 0 0 0 3.978-1.703 11.784 11.784 0 0 0 3.177-2.947 13.762 13.762 0 0 0 2.083-4.387 20.91 20.91 0 0 0 .765-5.866 11.003 11.003 0 0 0-3.612-8.51c-2.198-1.972-5.388-2.96-9.57-2.96-4.183 0-7.628 1.296-10.335 3.886a12.973 12.973 0 0 0-4.06 9.804c0 4.722 1.291 8.254 3.875 10.597h.003Zm41.258-20.93c1.406 0 2.408.282 3.006.846.557.68.909 1.506 1.014 2.38.221 1.03.358 2.078.409 3.13.035.926.053 2.12.053 3.582a450.47 450.47 0 0 1-.039 5.695c-.009.572-.005 1.246.012 2.022.005.578.04 1.156.106 1.73.053.38.123.794.211 1.242.061.376.186.737.369 1.07.158.265.352.506.578.715a4.083 4.083 0 0 0 2.899 1.056c1.319 0 2.83-.67 4.535-2.008a49.653 49.653 0 0 0 4.06-3.78l-.606-.9h-.633a6.428 6.428 0 0 1-3.611 1.4 2.065 2.065 0 0 1-1.53-.554 2.052 2.052 0 0 1-.462-.514 3.798 3.798 0 0 1-.276-1.084 15.327 15.327 0 0 1-.132-2.286c0-.581.031-1.52.092-2.814.049-.92.08-1.84.093-2.762v-1.586c.017-1.71.013-2.893-.013-3.555a25.134 25.134 0 0 0-.304-2.695 4.911 4.911 0 0 0-.817-2.352 5.485 5.485 0 0 0-1.635-1.215 5.733 5.733 0 0 0-2.689-.57c-3.093 0-6.679 1.27-10.756 3.807l-.633-.238a5.015 5.015 0 0 0-.909-2.708c-.519-.68-1.411-1.018-2.676-1.018a7.2 7.2 0 0 0-2.228.383c-.835.28-1.632.662-2.374 1.136-.8.503-1.494.97-2.083 1.4-.589.432-1.27.956-2.043 1.573l.975 1.295c.179-.116.36-.23.541-.343.307-.194.575-.352.804-.476.228-.123.501-.268.817-.436.283-.154.579-.283.884-.386.233-.08.477-.125.724-.132.305-.007.606.07.87.225.268.177.47.437.578.74.132.32.246.645.342.977.108.447.17.903.185 1.362.036.6.057 1.084.064 1.453.008.369.012.924.013 1.665v.45c0 1.726-.132 7.01-.395 15.855l.659.37 5.932-1.718c-.176-.757-.308-3.144-.396-7.16-.087-3.928-.13-7.858-.128-11.787 3.058-1.656 5.237-2.484 6.538-2.484l.005.002Zm25.573 9.01a.698.698 0 0 1-.158.028c-.263 0-.395-.097-.396-.29.001-.877.067-1.751.199-2.617a13.6 13.6 0 0 1 .737-2.762c.331-.903.783-1.757 1.345-2.537a6.33 6.33 0 0 1 5.128-2.524 4.135 4.135 0 0 1 3.664 1.824 7.247 7.247 0 0 1 1.239 4.175 1.34 1.34 0 0 1-.883 1.242 43.15 43.15 0 0 1-4.415 1.507c-2.107.62-4.208 1.263-6.301 1.93a.79.79 0 0 0-.158.025h-.001v-.001Zm15.66 8.246c-3.165 1.92-5.898 2.88-8.199 2.88a7.504 7.504 0 0 1-4.377-1.294 7.833 7.833 0 0 1-2.754-3.237 10.001 10.001 0 0 1-.884-4.19c11.495-3.575 17.295-5.363 17.401-5.363a1.95 1.95 0 0 0 1.555-2.009 7.543 7.543 0 0 0-.883-3.726 6.445 6.445 0 0 0-2.386-2.471 11.564 11.564 0 0 0-3.256-1.295 16.617 16.617 0 0 0-3.786-.41 15.958 15.958 0 0 0-6.64 1.335 12.734 12.734 0 0 0-4.758 3.568 16.208 16.208 0 0 0-2.755 5.02 17.928 17.928 0 0 0-.949 5.828c0 4.07 1.098 7.117 3.295 9.144 1.986 1.85 4.789 2.774 8.41 2.774a13.572 13.572 0 0 0 5.972-1.453 46.176 46.176 0 0 0 6.393-3.86l-.577-1.028-.822-.213Z" fill="#9C9C9C"/>
  </g>
  <defs>
    <clipPath id="a">
      <path fill="#fff" d="M0 0h208v41H0z"/>
    </clipPath>
  </defs>
</svg>
